X:1
T:Title
%%score { 1 | ( 2 3 ) }
L:1/8
Q:1/4=106
M:4/4
K:Bb
V:1 treble nm="Grand Piano"
V:2 bass 
V:3 bass 
V:1
 [DF]4 [_D=E]2 [=DF]2 | [_DG]3 [=DF] [DF]4 | B4 d2 [=Ec]2 | c8 | d4 A2 c2 | B3 G [DF]4 | F4 G3 F | %7
w: S.~M.~Bixby * *|||||||
 [DB]8 | B4 B2 B2 | d3 c c4 | e4 e2 e2 | e3 d d4 | [DB]4 [EB]2 [FB]2 | [EB]3 [Ec] [Dd]4 | %14
w: |||||||
 F2 d2 d3 c | [DB]8 |] %16
w: ||
V:2
 [B,,F,]4 [B,,G,]2 [B,,F,]2 | [B,,=E,]3 [B,,F,] [B,,B,]4 | [B,D]4 [G,B,F]2[K:bass] [C,B,]2 | %3
 [F,A,F]8 | [^F,A,D]4 [F,A,D]2 [D,F,D]2 | [G,D]3 [E,B,E] [B,,B,]4 | [F,B,D]4 [F,B,E]3 [F,A,E] | %7
 [B,,B,]8 | [B,D]4 [B,D]2 [B,D]2 | [F,B,F]3 [F,A,F] [F,A,F]4 | %10
 [G,B,E]4 [F,A,E]2[K:treble] [G,B,E]2 | [A,CF]3 [B,F] [B,F]4 | [B,,B,]4 [C,B,]2 [D,_A,]2 | %13
 [E,G,]3 [E,G,] [B,,F,]4 | z2 B,2 [F,A,F]3 [F,A,E] | [B,,B,]8 |] %16
V:3
 x8 | x8 | x6[K:bass] x2 | x8 | x8 | x8 | x8 | x8 | x8 | x8 | x6[K:treble] x2 | x8 | x8 | x8 | %14
 [F,D]4 z4 | x8 |] %16

